X:21
T:B021-  Balow (my babe)
S:via BBBM, from 'First Book of Consort Lessons', 1599
Q:1/4=120
L:1/4
M:C
K:G
AdAA|B3/4c/4 B/2A/2G2||AdAA|B3/4c/4 B/2A/2G2||\
AAA3/2G/2|A3/4G/4 A/2B/2 c B/2A/2| B3/2A/2GB|\
B2 2B/2B/2 A|G2||AAA3/2G/2|A3/4G/4 A/2B/2 cB/2A/2|\
B3/2 A/2  GB|B2 B/2B/2A|.G2|]

